X: 5
T: Dever The Dancer
R: slip jig
M: 9/8
L: 1/8
K: Edor
BEE BEF G2A|BEE BEG FGA|BEE BEF G2A|Bcd ABG FED:|ded dAF G2A|~d3 def gfe|ded dAF G2A|Bcd BAG FED|!ded dAF G2A|~d3 def gfe|afd ece d2A|Bcd ABG FED||!


Tune 148	Setting 148

